**kern
*staff1
!!pagebreak:original
*I"P1
=1-
*clefG2
*k[f#c#g#]
*M3/4
4.a/
*clefF4
16BB/LL
16C#/JJ
16D/LL
16C#/
16BB/
16C#/JJ
=2
4AA/
4C#/
4E\
=3
*clefG2
[2.a/
=4
4a/]
4g#/
4a/
=5
4b\
4cc#\
[4dd\
=6
4dd\]
4cc#\
[4ff#\
=7
4ff#\]
4ee\
8dd\L
8b\J
=8
4a/
=
*-
